!!!!SEGMENT: pl-wtm--r-1472_stefani-jozef--dziewczyna-w-dabrowie.krn
!!!cenid: 18xx:2219
!!!COM: Stefani, Józef
!!!COM-rismid: pe30024097
!!!CDT: 1800/04/16-1876/03/19
!!!CNT: Polish
!!!OTL: Dziewczyna w Dąbrowie
!!!PDT:
!!!AGN:
!!!SMS-siglum: PL-Wtm
!!!SMS-shelfmark: R 1472
!!!SMS-shelfwork: W
!!!SMS-variant:
!!!SMS-altvar:
!!!NIFC-rismid: 1001121153
!!!URL-scan: http://repozytorium.nifc.pl/skany/pl-wtm-nut--r1472--r1473
!!!ONB-nifc: UWAGA: w zbiorze 1. Dziewczyna w Dąbrowie, 2. Śpiew o Kościółku
!!!OMD: Allegro
**kern	**kern	**dynam	**kern	**text	**text	**text	**text
*part2	*part2	*part2	*part1	*part1	*part1	*part1	*part1
*staff3	*staff2	*	*staff1	*staff1	*staff1	*staff1	*staff1
*Iempty	*Iforte	*	*Ivox	*	*	*	*
*	*I"Fortepian	*	*I"Spiew	*	*	*	*
*>[A,B,B,B,B,C]	*>[A,B,B,B,B,C]	*>[A,B,B,B,B,C]	*>[A,B,B,B,B,C]	*>[A,B,B,B,B,C]	*>[A,B,B,B,B,C]	*>[A,B,B,B,B,C]	*>[A,B,B,B,B,C]
*>A	*>A	*>A	*>A	*>A	*>A	*>A	*>A
*clefF4	*clefG2	*	*clefG2	*	*	*	*
*k[f#c#g#d#]	*k[f#c#g#d#]	*	*k[f#c#g#d#]	*	*	*	*
*E:	*E:	*	*E:	*	*	*	*
*M3/4	*M3/4	*	*M3/4	*	*	*	*
*all\right	*all\right	*	*all\right	*	*	*	*
=1	=1	=1	=1	=1	=1	=1	=1
*^	*	*	*	*	*	*	*
*	*2\right	*	*	*	*	*	*	*
!	!	!	!LO:DY:rj	!	!	!	!	!
4EE/	2.EE\	8.eeL 8.g# 8.e/	f	2.r	.	.	.	.
.	.	16dd#Jk 16b/	.	.	.	.	.	.
4E/	.	4cc# 4a/	.	.	.	.	.	.
4E/	.	4b 4g#/	.	.	.	.	.	.
=2	=2	=2	=2	=2	=2	=2	=2	=2
4BB/	4BB\	8.bL 8.g#/	.	2.r	.	.	.	.
.	.	16aJk 16f#/	.	.	.	.	.	.
2BB\	4ryy	2f# 2d# 2B/	.	.	.	.	.	.
.	4ryy	.	.	.	.	.	.	.
*v	*v	*	*	*	*	*	*	*
!!LO:LB:g=original
=3	=3	=3	=3	=3	=3	=3	=3
4C# 4CC#\	8.eL 8.c# 8.G#</	.	2.r	.	.	.	.
.	16eJk 16c# 16G#</	.	.	.	.	.	.
4AA#X 4AAA#X\	4f# 4c# 4F#</	.	.	.	.	.	.
4AA# 4AAA#\	4e 4c# 4F#</	.	.	.	.	.	.
=4	=4	=4	=4	=4	=4	=4	=4
8.BBL 8.BBB\	8.d#L 8.B/	.	2.r;	.	.	.	.
16FF#Jk 16FFF#\	16c#Jk 16A#X< 16F#< 16E</	.	.	.	.	.	.
!	!LO:TX:b:t=V&colon; S&colon;	!	!	!	!	!	!
2BB 2BBB\	2B 2F#< 2D#<;/	.	.	.	.	.	.
!!LO:PB:g=original
=5	=5	=5	=5	=5	=5	=5	=5
!LO:TX:t=P:problem:mixed beam	!	!LO:DY:rj	!	!	!	!	!
16EE'</LL	8.g#L 8.e/	p	8.g#/	De-	.	.	.
(16E\	.	.	.	.	.	.	.
16D#\	.	.	.	.	.	.	.
16E\JJ	16aJk 16f#/	.	16a/	-szczyk	.	.	.
16D#\LL	4b 4g#/	.	4b/	pa-	.	.	.
16E\	.	.	.	.	.	.	.
16D#\	.	.	.	.	.	.	.
16E\JJ	.	.	.	.	.	.	.
16D#\LL	4cc# 4a/	.	4cc#\	-da	.	.	.
16E\	.	.	.	.	.	.	.
16D#\	.	.	.	.	.	.	.
16E\JJ)	.	.	.	.	.	.	.
=6	=6	=6	=6	=6	=6	=6	=6
!LO:TX:t=P:problem:mixed beam	!	!	!	!	!	!	!
16EE'</LL	8.bL 8.g#/	.	8.b\	słoń-	.	.	.
(16E\	.	.	.	.	.	.	.
16D#\	.	.	.	.	.	.	.
16E\JJ)	16a#XJk 16f##X/	.	16a#X\	-ce	.	.	.
*rep	*	*	*	*	*	*	*
!LO:TX:t=P:problem:mixed beam	!	!	!	!	!	!	!
16EE'</LL	4b 4g#/	.	4b\	świe-	.	.	.
(16E\	.	.	.	.	.	.	.
16D#\	.	.	.	.	.	.	.
16E\JJ)	.	.	.	.	.	.	.
*Xrep	*	*	*	*	*	*	*
*rep	*	*	*	*	*	*	*
!LO:TX:t=P:problem:mixed beam	!	!	!	!	!	!	!
16EE'<LL	4g# 4e/	.	4g#/	-ci:	.	.	.
(16E\	.	.	.	.	.	.	.
16D#\	.	.	.	.	.	.	.
16E\JJ)	.	.	.	.	.	.	.
*Xrep	*	*	*	*	*	*	*
=7	=7	=7	=7	=7	=7	=7	=7
16BB|\LL	8.aL 8.f#/	.	8.a/	Dziew-	.	.	.
(16B\	.	.	.	.	.	.	.
16A#X\	.	.	.	.	.	.	.
16B\JJ	16g#Jk 16e/	.	16g#/	-czy-	.	.	.
16A#\LL	4f# 4d#/	.	4f#/	-na	.	.	.
16B\	.	.	.	.	.	.	.
16A#\	.	.	.	.	.	.	.
16B\JJ	.	.	.	.	.	.	.
16A#\LL	4b 4d#/	.	4b/	w_dą-	.	.	.
16B\	.	.	.	.	.	.	.
16A#\	.	.	.	.	.	.	.
16B\JJ)	.	.	.	.	.	.	.
=8	=8	=8	=8	=8	=8	=8	=8
*^	*	*	*	*	*	*	*
(16D#\LL	4ryy	4g# 4e/	.	4g#/	-bro-	.	.	.
16E\	.	.	.	.	.	.	.	.
16G#\	.	.	.	.	.	.	.	.
16B\JJ)	.	.	.	.	.	.	.	.
2G#/	2E\	2e/	.	2e/	-wie,	.	.	.
*v	*v	*	*	*	*	*	*	*
!!LO:LB:g=original
=9	=9	=9	=9	=9	=9	=9	=9
4F# 4FF#/	4r	.	8.e#X/	Bry-	.	.	.
.	.	.	16f#/	-lan-	.	.	.
4r	4f# 4d# 4B/	.	4dd#\	-ta-	.	.	.
4r	4f# 4d# 4B/	.	4b\	-mi	.	.	.
=10	=10	=10	=10	=10	=10	=10	=10
4F# 4FF#/	4r	.	8.g#/	z_nie-	.	.	.
.	.	.	16f#/	-bios	.	.	.
4r	4f# 4e 4A#X/	.	4ee\	le-	.	.	.
4r	4f# 4e 4A#/	.	4cc#\	-ci,	.	.	.
=11	=11	=11	=11	=11	=11	=11	=11
!	!	!	!LO:TUP:b:problem:klamra łukowa	!	!	!	!
4F# 4FF#/	4r	.	12f#/L	słon-	.	.	.
.	.	.	12dd#/	.	.	.	.
.	.	.	12b/J	.	.	.	.
4r	4f# 4d# 4B/	.	8.ff#\	-ko	.	.	.
.	.	.	(16ff#\	Ku	.	.	.
4F# 4FF#/	4a#X 4f# 4e 4c#/	.	8.ee\)	.	.	.	.
.	.	.	16cc#\	iej	.	.	.
=12	=12	=12	=12	=12	=12	=12	=12
4B 4BB\	4r	.	4cc#\	gło-	.	.	.
4B 4BB\	4b 4f# 4d#/	.	4b\	wie:	.	.	.
!	!	!LO:DY:rj	!	!	!	!	!
4r	[4f#/	f	4r	.	.	.	.
!!LO:LB:g=original
=13	=13	=13	=13	=13	=13	=13	=13
!	!LO:TUP:b:problem:klamra łukowa	!	!	!	!	!	!
4F# 4FF#/	12f#/L]	.	2.r	.	.	.	.
.	12dd#/	.	.	.	.	.	.
.	12b/J	.	.	.	.	.	.
4d# 4B 4F#\	8.ff#|\L	.	.	.	.	.	.
.	(16ff#\Jk	.	.	.	.	.	.
4e 4A#X 4F#\	8.ee\L)	.	.	.	.	.	.
.	16cc#|\Jk	.	.	.	.	.	.
=14	=14	=14	=14	=14	=14	=14	=14
4d# 4B\	4b\	.	2.r	.	.	.	.
4B 4BB\	4bb 4ff# 4dd# 4b\	.	.	.	.	.	.
4r	4r	p	.	.	.	.	.
=15	=15	=15	=15	=15	=15	=15	=15
16BB|\LL	8.aL 8.f#/	.	8.a/	Na	.	.	.
(16B\	.	.	.	.	.	.	.
16A#X\	.	.	.	.	.	.	.
16B\JJ	16aJk 16f#/	.	16a/	iej	.	.	.
16A#\LL	4cc# 4a/	.	4cc#\	głow-	.	.	.
16B\	.	.	.	.	.	.	.
16A#\	.	.	.	.	.	.	.
16B\JJ	.	.	.	.	.	.	.
*rep	*	*	*	*	*	*	*
16A#\LL	(8bL 8g#/	.	8b/L	-kę	.	.	.
16B\	.	.	.	.	.	.	.
16A#\	8aJ 8f#/)	.	8a/J	.	.	.	.
16B\JJ)	.	.	.	.	.	.	.
*Xrep	*	*	*	*	*	*	*
=16	=16	=16	=16	=16	=16	=16	=16
*rep	*	*	*	*	*	*	*
16BB|\LL	8.g#L 8.e/	.	8.g#/	zło-	.	.	.
(16B\	.	.	.	.	.	.	.
16A#X\	.	.	.	.	.	.	.
16B\JJ	16g#Jk 16e/	.	16g#/	-to-	.	.	.
16A#\LL	4b 4g#/	.	4b/	-wło-	.	.	.
16B\	.	.	.	.	.	.	.
16A#\	.	.	.	.	.	.	.
16B\JJ	.	.	.	.	.	.	.
16A#\LL	4g# 4e/	.	4g#/	-są,	.	.	.
16B\	.	.	.	.	.	.	.
16A#\	.	.	.	.	.	.	.
16B\JJ)	.	.	.	.	.	.	.
*Xrep	*	*	*	*	*	*	*
=17	=17	=17	=17	=17	=17	=17	=17
*rep	*	*	*	*	*	*	*
16BB|\LL	8.f#L 8.d#/	.	8.f#/	Desz-	.	.	.
(16B\	.	.	.	.	.	.	.
16A#X\	.	.	.	.	.	.	.
16B\JJ	16g#Jk 16e/	.	16g#/	-czyk	.	.	.
16A#\LL	4a 4f#/	.	4a/	zło-	.	.	.
16B\	.	.	.	.	.	.	.
16A#\	.	.	.	.	.	.	.
16B\JJ	.	.	.	.	.	.	.
16A#\LL	4cc# 4a/	.	4cc#\	-ty	.	.	.
16B\	.	.	.	.	.	.	.
16A#\	.	.	.	.	.	.	.
16B\JJ)	.	.	.	.	.	.	.
*Xrep	*	*	*	*	*	*	*
!!LO:LB:g=original
=18	=18	=18	=18	=18	=18	=18	=18
8E'\L	4b 4g#/	.	4b\	pa-	.	.	.
(16G#\L	.	.	.	.	.	.	.
16B\JJ)	.	.	.	.	.	.	.
8E\	16g#LL 16e/	.	4g#/	-da:	.	.	.
.	(16e/	<	.	.	.	.	.
8r	16f#/	.	.	.	.	.	.
.	16g#/JJ	.	.	.	.	.	.
4r	16a/LL	.	4r	.	.	.	.
.	16b/	.	.	.	.	.	.
.	16cc#/	.	.	.	.	.	.
.	16dd#/JJ)	[[	.	.	.	.	.
=19	=19	=19	=19	=19	=19	=19	=19
*^	*	*	*	*	*	*	*
!	!	!	!LO:DY:rj	!	!	!	!	!
4EE/	2.EE\	8.eeL 8.g# 8.e/	f	8.ee\	O-	.	.	.
.	.	16dd#Jk 16b/	.	16dd#\	-na	.	.	.
4E/	.	4cc# 4a/	.	4cc#\	pu-	.	.	.
4E/	.	4b 4g#/	.	4b\	-sta	.	.	.
=20	=20	=20	=20	=20	=20	=20	=20	=20
4EE/	2.EE\	8.a#XL 8.f##X/	.	8.a#X/	ku	.	.	.
.	.	16bJk 16g#/	.	16b/	Nie-	.	.	.
4E/	.	4g# 4e/	.	4g#/	-bio-	.	.	.
4E/	.	4b 4g#/	.	4b/	-som	.	.	.
*v	*v	*	*	*	*	*	*	*
=21	=21	=21	=21	=21	=21	=21	=21
4BB 4BBB/	4r	.	8.b/	Rą-	.	.	.
.	.	.	16f#/	-czki	.	.	.
.	.	.	8qa/	.	.	.	.
!	!	!LO:DY:rj	!	!	!	!	!
4r	4g# 4e 4B/	p	4g#;/	swe	.	.	.
4BB 4BBB/	4f# 4d# 4A/	.	4f#/	roz-	.	.	.
=22	=22	=22	=22	=22	=22	=22	=22
4BB 4BBB/	4f# 4d# 4A/	.	4f#/	-kła-	.	.	.
4E 4EE/	4e 4G#/	.	4e/	-da,	.	.	.
4r	4r	.	4r	.	.	.	.
!!LO:PB:g=original
=23	=23	=23	=23	=23	=23	=23	=23
(8qD#/	.	.	.	.	.	.	.
*	*tremolo	*	*	*	*	*	*
!	!	!LO:DY:rj	!LO:TX:a:Bi:t=Allegro\nanimato.	!	!	!	!
8E\)	(32e/LLL	p	8.e/	"Leć	.	.	.
.	32gn/	.	.	.	.	.	.
.	32e/	.	.	.	.	.	.
.	32g/	.	.	.	.	.	.
8r	32e/	.	.	.	.	.	.
.	32g/	.	.	.	.	.	.
.	32e/	.	16gn/	desz-	.	.	.
.	32g/	.	.	.	.	.	.
8Gn\	32e/	.	4b\	-czy-	.	.	.
.	32g/	.	.	.	.	.	.
.	32e/	.	.	.	.	.	.
.	32g/	.	.	.	.	.	.
8r	32e/	.	.	.	.	.	.
.	32g/	.	.	.	.	.	.
.	32e/	.	.	.	.	.	.
.	32g/	.	.	.	.	.	.
8E\	32e/	.	4ee\	-ku	.	.	.
.	32g/	.	.	.	.	.	.
.	32e/	.	.	.	.	.	.
.	32g/	.	.	.	.	.	.
8r	32e/	.	.	.	.	.	.
.	32g/	.	.	.	.	.	.
.	32e/	.	.	.	.	.	.
.	32gn/JJJ)	.	.	.	.	.	.
=24	=24	=24	=24	=24	=24	=24	=24
*	*	*	*2\right	*	*	*	*
8BB/	(32d#/LLL	.	2dd#\	leć!	.	.	.
.	32f#/	.	.	.	.	.	.
.	32d#/	.	.	.	.	.	.
.	32f#/	.	.	.	.	.	.
8r	32d#/	.	.	.	.	.	.
.	32f#/	.	.	.	.	.	.
.	32d#/	.	.	.	.	.	.
.	32f#/	.	.	.	.	.	.
4B\	32d#/	.	.	.	.	.	.
.	32f#/	.	.	.	.	.	.
.	32d#/	.	.	.	.	.	.
.	32f#/	.	.	.	.	.	.
.	32d#/	.	.	.	.	.	.
.	32f#/	.	.	.	.	.	.
.	32d#/	.	.	.	.	.	.
.	32f#/	.	.	.	.	.	.
4r	32d#/	.	4r	.	.	.	.
.	32f#/	.	.	.	.	.	.
.	32d#/	.	.	.	.	.	.
.	32f#/	.	.	.	.	.	.
.	32d#/	.	.	.	.	.	.
.	32f#/	.	.	.	.	.	.
.	32d#/	.	.	.	.	.	.
.	32f#/JJJ)	.	.	.	.	.	.
=25	=25	=25	=25	=25	=25	=25	=25
8E\	(32e/LLL	.	8.gn/	Bry-	.	.	.
.	32gn/	.	.	.	.	.	.
.	32e/	.	.	.	.	.	.
.	32g/	.	.	.	.	.	.
8r	32e/	.	.	.	.	.	.
.	32g/	.	.	.	.	.	.
.	32e/	.	16b/	-lan-	.	.	.
.	32g/	.	.	.	.	.	.
(8qF#/	.	.	.	.	.	.	.
8Gn\)	32e/	.	(8.b/L	-ta-	.	.	.
.	32g/	.	.	.	.	.	.
.	32e/	.	.	.	.	.	.
.	32g/	.	.	.	.	.	.
8r	32e/	.	.	.	.	.	.
.	32g/	.	.	.	.	.	.
.	32e/	.	32ccn/LL	.	.	.	.
.	32g/	.	32b/JJJ	.	.	.	.
8E\	32e/	.	8a/)	.	.	.	.
.	32g/	.	.	.	.	.	.
.	32e/	.	.	.	.	.	.
.	32g/	.	.	.	.	.	.
8r	32e/	.	8g/	-mi	.	.	.
.	32g/	.	.	.	.	.	.
.	32e/	.	.	.	.	.	.
.	32gn/JJJ)	.	.	.	.	.	.
=26	=26	=26	=26	=26	=26	=26	=26
8BB/	(32d#/LLL	.	2f#/	świeć!	.	.	.
.	32f#/	.	.	.	.	.	.
.	32d#/	.	.	.	.	.	.
.	32f#/	.	.	.	.	.	.
8r	32d#/	.	.	.	.	.	.
.	32f#/	.	.	.	.	.	.
.	32d#/	.	.	.	.	.	.
.	32f#/	.	.	.	.	.	.
4B\	32d#/	.	.	.	.	.	.
.	32f#/	.	.	.	.	.	.
.	32d#/	.	.	.	.	.	.
.	32f#/	.	.	.	.	.	.
.	32d#/	.	.	.	.	.	.
.	32f#/	.	.	.	.	.	.
.	32d#/	.	.	.	.	.	.
.	32f#/	.	.	.	.	.	.
4r	32d#/	.	4r	.	.	.	.
.	32f#/	.	.	.	.	.	.
.	32d#/	.	.	.	.	.	.
.	32f#/	.	.	.	.	.	.
.	32d#/	.	.	.	.	.	.
.	32f#/	.	.	.	.	.	.
.	32d#/	.	.	.	.	.	.
.	32f#/JJJ)	.	.	.	.	.	.
*	*Xtremolo	*	*	*	*	*	*
!!LO:LB:g=original
=27	=27	=27	=27	=27	=27	=27	=27
4Cn 4CCn/	4r	.	8.e/	U-	.	.	.
.	.	.	16ccn\	-ką-	.	.	.
4rFF	4e 4cn 4Gn</	.	4ee\	-pa-	.	.	.
4rFF	4e 4c 4G</	.	4cc\	-na	.	.	.
=28	=28	=28	=28	=28	=28	=28	=28
4GGn 4GGGn/	4r	.	8.b\	ja	.	.	.
.	.	.	16b\	na	.	.	.
4r	4gn 4dn 4B/	.	4ddn\	wios-	.	.	.
4r	4g 4d 4B/	.	4b\	-nę,	.	.	.
=29	=29	=29	=29	=29	=29	=29	=29
4AA 4AAA/	4r	.	8.a/	mu-	.	.	.
.	.	.	16e/	-szę	.	.	.
4r	4e 4cn 4A/	.	4ccn\	pod-	.	.	.
4r	4e 4c 4A/	.	4a/	-rość	.	.	.
=30	=30	=30	=30	=30	=30	=30	=30
4E 4EE/	4r	.	8.g#X/	o!	.	.	.
.	.	.	16a/	pod-	.	.	.
4r	4g# 4e 4B/	.	4b/	-ro-	.	.	.
4r	4g# 4e 4B/	.	4g#/	-snę	.	.	.
=31	=31	=31	=31	=31	=31	=31	=31
4F# 4FF#/	4r	.	8.a/	Jak	.	.	.
.	.	.	16a/	ta	.	.	.
4r	4f# 4c# 4A/	.	4g#/	so-	.	.	.
4r	4f# 4c# 4A/	.	4f#/	-sna	.	.	.
!!LO:LB:g=original
=32	=32	=32	=32	=32	=32	=32	=32
2.D# 2.DD#/	4r	.	8.b\	za	.	.	.
.	.	.	16cc#\	o-	.	.	.
.	4f# 4B/	.	4b\	-gro-	.	.	.
.	4f# 4B/	.	4f#/	-dem	.	.	.
=33	=33	=33	=33	=33	=33	=33	=33
4E 4EE/	4r	.	8.g#/	Przed	.	.	.
.	.	.	16b/	dróż-	.	.	.
4r	4g# 4e 4B/	.	4a/	-ka-	.	.	.
4r	4g# 4e 4B/	.	4g#/	-mi	.	.	.
=34	=34	=34	=34	=34	=34	=34	=34
4B 4BB\	4r	.	8.b\	pój-	.	.	.
.	.	.	16cc#\	-dę	.	.	.
4r	4dd# 4b 4f#/	.	4dd#\	przo-	.	.	.
4r	4b 4f# 4d#/	.	4b\	-dem!	.	.	.
=35	=35	=35	=35	=35	=35	=35	=35
8.AL 8.AA/	8.cc#L 8.a 8.e/	.	8.cc#\	Leć	.	.	.
16G#Jk 16GG#/	16bJk 16e/	.	16b\	desz-	.	.	.
!LO:TX:t=P:problem:mixed beam	!	!	!	!	!	!	!
(>16AA/LL	(16cc#LL 16a/	.	4cc#\	-czy-	.	.	.
16A\	16e/	.	.	.	.	.	.
16AA/	16cc# 16a/	.	.	.	.	.	.
16A\JJ	16e/JJ	.	.	.	.	.	.
!LO:TX:t=P:problem:mixed beam	!	!	!	!	!	!	!
16FF#/LL	16dd#LL 16b/	.	4dd#\	-ku	.	.	.
16F#\	16a/	.	.	.	.	.	.
16FF#/	16dd# 16b/	.	.	.	.	.	.
16F#\JJ)	16a/JJ)	.	.	.	.	.	.
!!LO:LB:g=original
=36	=36	=36	=36	=36	=36	=36	=36
*tremolo	*tremolo	*	*	*	*	*	*
!LO:TX:t=P:problem:mixed beam	!	!	!	!	!	!	!
(>16EE/LL	(16eeLL 16g#/	.	2ee\	leć!	.	.	.
16E\	16e/	.	.	.	.	.	.
16EE/	16ee 16g#/	.	.	.	.	.	.
16E\	16e/	.	.	.	.	.	.
16EE/	16ee 16g#/	.	.	.	.	.	.
16E\	16e/	.	.	.	.	.	.
16EE/	16ee 16g#/	.	.	.	.	.	.
16E\JJ)	16e/JJ)	.	.	.	.	.	.
*Xtremolo	*Xtremolo	*	*	*	*	*	*
!LO:TX:t=P:problem:mixed beam	!	!	!	!	!	!	!
(>16AA/LL	(16cc#LL 16a/	.	4cc#\	„Ah!	.	.	.
16A\	16e/	.	.	.	.	.	.
16AA/	16cc# 16a/	.	.	.	.	.	.
16A\JJ)	16e/JJ)	.	.	.	.	.	.
=37	=37	=37	=37	=37	=37	=37	=37
4B 4BB\	4b 4f# 4d#/	.	8.b\	Leć	.	.	.
.	.	.	16f#/	desz-	.	.	.
.	.	.	8qa/	.	.	.	.
4r;	4r;	.	4g#;/	-czy-	.	.	.
4B 4BB\	4dd# 4b 4a 4f#/	.	4f#/	-ku	.	.	.
=38	=38	=38	=38	=38	=38	=38	=38
!	!LO:TX:t=P:problem:zbędny takt w V	!	!LO:TX:t=P:problem:zbędny takt w V	!	!	!	!
2.ryy	2.ryy	.	4e/	leć!„	.	.	.
.	.	.	4ryy	.	.	.	.
.	.	.	4ryy	.	.	.	.
!!LO:PB:g=original
=39	=39	=39	=39	=39	=39	=39	=39
*>B	*>B	*>B	*>B	*>B	*>B	*>B	*>B
!	!	!	!LO:TX:t=[segno]	!	!	!	!
!	!LO:TX:t=[segno]	!LO:DY:rj	!LO:TX:a:Bi:t=a tempo Imo	!	!	!	!
4E 4EE/	8.eeL 8.b 8.g# 8.e/	f	4e/	.	.	.	.
.	16dd#Jk 16b/	.	.	.	.	.	.
4E 4EE/	4cc# 4a/	.	4r	.	.	.	.
4E 4EE/	4b 4g#/	.	4r	.	.	.	.
=40	=40	=40	=40	=40	=40	=40	=40
[4BB/	8.bL 8.g#/	.	2.r	.	.	.	.
.	16aJk 16f#/	.	.	.	.	.	.
2BB/]	2f# 2d# 2B/	.	.	.	.	.	.
=41	=41	=41	=41	=41	=41	=41	=41
4C# 4CC#\	8.eL 8.c# 8.G#</	.	2.r	.	.	.	.
.	16eJk 16c# 16G#</	.	.	.	.	.	.
4AA#X 4AAA#X\	4f# 4c# 4F#</	.	.	.	.	.	.
4AA# 4AAA#\	4e 4c# 4G#</	.	.	.	.	.	.
=42	=42	=42	=42	=42	=42	=42	=42
8.BBL 8.BBB\	8.d#L 8.B 8.F#</	.	2.r;	.	.	.	.
16FF#Jk 16FFF#\	16c#Jk 16A#X< 16F#< 16E</	.	.	.	.	.	.
2BB 2BBB\	2B 2F#< 2D#<;/	.	.	.	.	.	.
!!LO:LB:g=original
=43	=43	=43	=43	=43	=43	=43	=43
!LO:TX:t=P:problem:mixed beam	!	!LO:DY:rj	!	!	!	!	!
16EE|</LL	8.g#L 8.e/	p	8.g#/	Roz-	Patrz	A	A-
(16E\	.	.	.	.	.	.	.
16D#\	.	.	.	.	.	.	.
16E\JJ	16aJk 16f#/	.	16a/	-pa-	sta-	po	-ni
16D#\LL	4b 4g#/	.	4b/	-czo-	-nę-	za	tę-
16E\	.	.	.	.	.	.	.
16D#\	.	.	.	.	.	.	.
16E\JJ	.	.	.	.	.	.	.
16D#\LL	4cc# 4a/	.	4cc#\	-na	-ła	nią	-czą
16E\	.	.	.	.	.	.	.
16D#\	.	.	.	.	.	.	.
16E\JJ)	.	.	.	.	.	.	.
=44	=44	=44	=44	=44	=44	=44	=44
!LO:TX:t=P:problem:mixed beam	!	!	!	!	!	!	!
16EE|</LL	8.bL 8.g#/	.	8.b\	dłu-	nad	na	u-
(16E\	.	.	.	.	.	.	.
16D#\	.	.	.	.	.	.	.
16E\JJ)	16a#XJk 16f##X/	.	16a#X\	-ga	rze-	chmur	-le-
!LO:TX:t=P:problem:mixed beam	!	!	!	!	!	!	!
16EE|</LL	4b 4g#/	.	4b\	wło-	-czół-	cie-	-cia-
(16E\	.	.	.	.	.	.	.
16D#\	.	.	.	.	.	.	.
16E\JJ)	.	.	.	.	.	.	.
!LO:TX:t=P:problem:mixed beam	!	!	!	!	!	!	!
16EE|</LL	4g# 4e/	.	4g#/	-sa	-ko.	-niu	-ła
(16E\	.	.	.	.	.	.	.
16D#\	.	.	.	.	.	.	.
16E\JJ)	.	.	.	.	.	.	.
=45	=45	=45	=45	=45	=45	=45	=45
16BB'\LL	8.aL 8.f#/	.	8.a/	Ni-	W_desz-	Dru-	Ni
(16B\	.	.	.	.	.	.	.
16A#X\	.	.	.	.	.	.	.
16B\JJ	16g#Jk 16e/	.	16g#/	-by	-czu	-ga	w_wo-
16A#\LL	4f# 4d#/	.	4f#/	płaszcz	u-	tę-	-dę
16B\	.	.	.	.	.	.	.
16A#\	.	.	.	.	.	.	.
16B\JJ	.	.	.	.	.	.	.
*rep	*	*	*	*	*	*	*
16A#\LL	4b 4d#/	.	4b/	bo-	-ką-	-cza	plu-
16B\	.	.	.	.	.	.	.
16A#\	.	.	.	.	.	.	.
16B\JJ)	.	.	.	.	.	.	.
*Xrep	*	*	*	*	*	*	*
=46	=46	=46	=46	=46	=46	=46	=46
*^	*	*	*	*	*	*	*
(16D#\LL	4ryy	4g# 4e/	.	4g#/	-ga-	-pa-	strze-	-snę-
16E\	.	.	.	.	.	.	.	.
16G#\	.	.	.	.	.	.	.	.
16B\JJ)	.	.	.	.	.	.	.	.
2G#/	2E\	2e/	.	2e/	-ty.	-na.	-li;	-ła.
*v	*v	*	*	*	*	*	*	*
!!LO:LB:g=original
=47	=47	=47	=47	=47	=47	=47	=47
4F# 4FF#/	4r	.	8.e#X/	Gdzie	O	Po	A-
.	.	.	16f#/	Kró-	bie-	tę-	-le
4d# 4B 4F#\	16r	.	4dd#\	-lew-	-luch-	-czo-	chło-
.	(16f#/LL	.	.	.	.	.	.
.	16b/	.	.	.	.	.	.
.	16dd#/JJ)	.	.	.	.	.	.
4d# 4B 4F#\	4b/	.	4b\	-no	-ne	-wych	-pca
=48	=48	=48	=48	=48	=48	=48	=48
4F# 4FF#/	4r	.	8.g#/	le-	ia-	barw	zo-
.	.	.	16f#/	-cisz	-sne	pro-	-ba-
4e 4A#X 4F#\	16r	.	4ee\	bo-	czoł-	-mie-	-czy-
.	(16f#/LL	.	.	.	.	.	.
.	16cc#/	.	.	.	.	.	.
.	16ee/JJ)	.	.	.	.	.	.
4e 4A# 4F#\	4cc#\	.	4cc#\	-sa	-ko.	-niu	-ła
=49	=49	=49	=49	=49	=49	=49	=49
*	*	*	*Xtuplet	*	*	*	*
4F# 4FF#/	4r	.	12f#/L	mię-	Tę-	Zla-	i
.	.	.	12dd#/J	.	.	.	.
.	.	.	12b/	-dzy	-czą	-tu-	.
4r	4f# 4d# 4B/	.	(4ff#\	pol-	u-	-ią	w_gniu
4F# 4FF#/	4a#X 4f# 4e 4c#/	.	8.ee\)	.	.	.	.
.	.	.	16cc#\	-ne	-pa-	A-	zni-
=50	=50	=50	=50	=50	=50	=50	=50
4B 4BB\	4r	.	4cc#\	kwia-	-sa-	-nie-	-knę-
4B 4BB\	4b 4f# 4d#/	.	4b\	-ty	-ne	-li	-ła
!	!	!LO:HP:a	!	!	!	!	!
.	.	<	.	.	.	.	.
4r	[4f#/	[[	4r	.	.	.	.
!!LO:LB:g=original
=51	=51	=51	=51	=51	=51	=51	=51
!	!LO:TUP:b	!LO:DY:rj	!	!	!	!	!
4F# 4FF#'>/	(12f#/L]	f	2.r	.	.	.	.
.	12dd#/	.	.	.	.	.	.
.	12b/J	.	.	.	.	.	.
4d# 4B 4F#\	8.ff#\L)	.	.	.	.	.	.
.	16ff#|\K	.	.	.	.	.	.
4e 4A#X 4F#\	8.ee|\	.	.	.	.	.	.
.	16cc#|\Jk	.	.	.	.	.	.
=52	=52	=52	=52	=52	=52	=52	=52
4d# 4B\	4b\	.	2.r	.	.	.	.
4B 4BB\	4bb 4ff# 4dd# 4b\	.	.	.	.	.	.
4r	4r	p	.	.	.	.	.
=53	=53	=53	=53	=53	=53	=53	=53
16BB|\LL	8.aL 8.f#/	.	8.a/	Mię-	Tę-	O-	Mój
(16B\	.	.	.	.	.	.	.
16A#X\	.	.	.	.	.	.	.
16B\JJ	16aJk 16f#/	.	16a/	-dzy	-czą	-na	Ty
16A#\LL	4cc# 4a/	.	4cc#\	li-	Kro-	fur-	Bo-
16B\	.	.	.	.	.	.	.
16A#\	.	.	.	.	.	.	.
16B\JJ	.	.	.	.	.	.	.
*rep	*	*	*	*	*	*	*
16A#\LL	(8bL 8g#/	.	8b/L	-li-	-pel	-kła	-że
16B\	.	.	.	.	.	.	.
16A#\	8aJ 8f#/)	.	8a/J	-e	.	.	.
16B\JJ)	.	.	.	.	.	.	.
*Xrep	*	*	*	*	*	*	*
=54	=54	=54	=54	=54	=54	=54	=54
*rep	*	*	*	*	*	*	*
16BB|\LL	8.g#L 8.e/	.	8.g#/	mię-	prze-	bia-	po-
(16B\	.	.	.	.	.	.	.
16A#X\	.	.	.	.	.	.	.
16B\JJ	16g#Jk 16e/	.	16g#/	-dzy	-zro-	-łą	-my-
16A#\LL	4b 4g#/	.	4b/	ró-	-czy-	nóż-	-śla-
16B\	.	.	.	.	.	.	.
16A#\	.	.	.	.	.	.	.
16B\JJ	.	.	.	.	.	.	.
16A#\LL	4g# 4e/	.	4g#/	-że	-stą,	-ką	-ła,
16B\	.	.	.	.	.	.	.
16A#\	.	.	.	.	.	.	.
16B\JJ)	.	.	.	.	.	.	.
*Xrep	*	*	*	*	*	*	*
=55	=55	=55	=55	=55	=55	=55	=55
*rep	*	*	*	*	*	*	*
16BB|\LL	8.f#L 8.d#/	.	8.f#/	Bra-	Co	Gdzieś	Co
(16B\	.	.	.	.	.	.	.
16A#X\	.	.	.	.	.	.	.
16B\JJ	16g#Jk 16e/	.	16g#/	-tki	w_sło-	.	też
16A#\LL	4a 4f#/	.	4a/	i	-ne-	na-	ten
16B\	.	.	.	.	.	.	.
16A#\	.	.	.	.	.	.	.
16B\JJ	.	.	.	.	.	.	.
16A#\LL	4cc# 4a\	.	4cc#\	sto-	-czku	-gle	pan
16B\	.	.	.	.	.	.	.
16A#\	.	.	.	.	.	.	.
16B\JJ)	.	.	.	.	.	.	.
*Xrep	*	*	*	*	*	*	*
!!LO:PB:g=original
=56	=56	=56	=56	=56	=56	=56	=56
8E\L	4b 4g#/	.	4b/	-kro-	świe-	knę-	po-
16G#\L	.	.	.	.	.	.	.
16B\JJ	.	.	.	.	.	.	.
8E\	16g#LL 16e/	.	4g#/	-tki,	-cą,	-ła;	-wie
.	(16e/	.	.	.	.	.	.
8r	16f#/	.	.	.	.	.	.
.	16g#/JJ	.	.	.	.	.	.
4r	16a/LL	.	4r	.	.	.	.
.	16b/	.	.	.	.	.	.
.	16cc#/	.	.	.	.	.	.
.	16dd#/JJ)	.	.	.	.	.	.
=57	=57	=57	=57	=57	=57	=57	=57
*^	*	*	*	*	*	*	*
4EE/	2.EE\	8.eeL 8.g# 8.e/	.	8.ee\	O-	Czyś	Czy	Żem
.	.	16dd#Jk 16b/	.	16dd#\	-czki	ty	po	ja
4E/	.	4cc# 4a/	.	4cc#\	Two-	świę-	tę-	bo-
4E/	.	4b 4g#/	.	4b\	-je	-tą	-czy	-so
=58	=58	=58	=58	=58	=58	=58	=58	=58
4EE/	2.EE\	8.a#XL 8.f##X/	.	8.a#X/	mo-	pro-	wy-	po-
.	.	16bJk 16g#/	.	16b/	-dre	-mie-	-le-	-le-
4E/	.	4g# 4e/	.	4g#/	du-	-ni-	-cia-	-cia-
4E/	.	4b 4g#/	.	4b/	-że	-stą	-ła	-ła
*v	*v	*	*	*	*	*	*	*
=59	=59	=59	=59	=59	=59	=59	=59
!	!	!LO:DY:rj	!	!	!	!	!
4BB 4BBB/	4r	p	8.b/	Jak	Czyś	Czy	Bu-
.	.	.	16f#/	dwie	ty	w_wo-	-jać
.	.	.	(8qa/	.	.	.	.
4r;	4g# 4e 4B;/	.	4g#;/)	nie-	tą	-dę	po
4BB 4BBB/	4f# 4d# 4A/	.	4f#/	-za-	pie-	plu-	dą-
!!LO:LB:g=original
=60	=60	=60	=60	=60	=60	=60	=60
4BB 4BBB/	4f# 4d# 4A/	.	4f#/	-bud-	-li-	-snę-	-bro-
8E 8EE/	8e 8G#/	.	8e/	-ki	-cą?	-ła?	-wie.
8r	(16f#/LL	.	8r	.	.	.	.
.	16g#/JJ	.	.	.	.	.	.
4r	16a/LL	.	4r	.	.	.	.
.	16b/	.	.	.	.	.	.
.	16cc#/	.	.	.	.	.	.
!	!LO:TX:t=[segno]:problem:na kresce taktowej	!	!LO:TX:t=[segno]:problem:na kresce taktowej	!	!	!	!
.	16dd#/JJ)	.	.	.	.	.	.
=61||	=61||	=61||	=61||	=61||	=61||	=61||	=61||
*>C	*>C	*>C	*>C	*>C	*>C	*>C	*>C
!	!	!LO:DY:rj	!	!	!	!	!
4E 4EE/	8.ee\L	f	2.r	.	.	.	.
.	16dd#\Jk	.	.	.	.	.	.
4B 4G# 4E\	4cc#\	.	.	.	.	.	.
4B 4G# 4E\	4b\	.	.	.	.	.	.
=62	=62	=62	=62	=62	=62	=62	=62
*^	*	*	*	*	*	*	*
4r	2.BB\	8.b/L	.	2.r	.	.	.	.
.	.	16a/Jk	.	.	.	.	.	.
4B 4F# 4D#/	.	2f#/	.	.	.	.	.	.
4B 4F# 4D#/	.	.	.	.	.	.	.	.
=63	=63	=63	=63	=63	=63	=63	=63	=63
.	.	(8qe/	.	.	.	.	.	.
4r	2.E\	8.ee\L)	.	2.r	.	.	.	.
.	.	16gg#'\Jk	.	.	.	.	.	.
.	.	(8qgg#/	.	.	.	.	.	.
4B 4G#/	.	8.ff#\L)	.	.	.	.	.	.
.	.	16ee|\Jk	.	.	.	.	.	.
.	.	(8qee/	.	.	.	.	.	.
4B 4G#/	.	8.dd#\L)	.	.	.	.	.	.
.	.	16cc#|\Jk	.	.	.	.	.	.
!!LO:LB:g=original
=64	=64	=64	=64	=64	=64	=64	=64	=64
.	.	(8qcc#/	.	.	.	.	.	.
4r	2.BB\	8.b/L)	.	2.ryy	.	.	.	.
.	.	16a|/Jk	.	.	.	.	.	.
4B 4F# 4D#/	.	2f#/	.	.	.	.	.	.
4B 4F# 4D#/	.	.	.	.	.	.	.	.
*v	*v	*	*	*	*	*	*	*
=65	=65	=65	=65	=65	=65	=65	=65
4E 4EE/	(16d#/LL	.	2.ryy	.	.	.	.
.	16e/	.	.	.	.	.	.
.	16g#/	.	.	.	.	.	.
.	16b/JJ)	.	.	.	.	.	.
4B 4G# 4E\	4ee\	.	.	.	.	.	.
4B 4G# 4E\	4gg# 4ee 4b\	.	.	.	.	.	.
=66	=66	=66	=66	=66	=66	=66	=66
*^	*	*	*	*	*	*	*
4r	2.AA\	(<16f#/LL	.	2.ryy	.	.	.	.
.	.	16a/	.	.	.	.	.	.
.	.	16cc#/	.	.	.	.	.	.
.	.	16ff#/JJ	.	.	.	.	.	.
4A 4F# 4C#/	.	4aa\)	.	.	.	.	.	.
4A 4F# 4C#/	.	4ccc# 4aa 4ff#\	.	.	.	.	.	.
=67	=67	=67	=67	=67	=67	=67	=67	=67
*	*	*Xtuplet	*	*	*	*	*	*
4r	2.BB\	12bbL 12gg#'\	.	2.ryy	.	.	.	.
.	.	(12ggg#\	.	.	.	.	.	.
.	.	12fff#\J)	.	.	.	.	.	.
4B 4G# 4E/	.	12eee'\L	.	.	.	.	.	.
.	.	(12ddd#\	.	.	.	.	.	.
.	.	12ccc#\J)	.	.	.	.	.	.
4B 4A 4D#/	.	12bb'\L	.	.	.	.	.	.
.	.	(12aa\	.	.	.	.	.	.
.	.	12ff#\J)	.	.	.	.	.	.
*v	*v	*	*	*	*	*	*	*
=68	=68	=68	=68	=68	=68	=68	=68
4B 4G# 4E\	4ee\	.	2.ryy	.	.	.	.
4E 4EE/	4eee 4gg# 4ee\	.	.	.	.	.	.
4r	4r	.	.	.	.	.	.
==	==	==	==	==	==	==	==
*-	*-	*-	*-	*-	*-	*-	*-
!!!system-decoration: <s1>{(s2,s3)}
!!!RDF**kern: > = above
!!!RDF**kern: < = below
!!!RDF**kern: | = vertical stroke
!!!AIN: 1 empty 1 vox
!!!ENC: Andrzej Kubiczek
!!!END: 2021-06-05
!!!ENC: Marcin Jachim
!!!END: 2021-05-21
